justvector/twitter_alt.svg

<?xml version="1.0" encoding="iso-8859-1"?>
<!-- Generator: Adobe Illustrator 15.0.0, SVG Export Plug-In . SVG Version: 6.00 Build 0)  -->
<!DOCTYPE svg PUBLIC "-//W3C//DTD SVG 1.1//EN" "http://www.w3.org/Graphics/SVG/1.1/DTD/svg11.dtd">
<svg version="1.1" id="Icons" xmlns="http://www.w3.org/2000/svg" xmlns:xlink="http://www.w3.org/1999/xlink" x="0px" y="0px"
	 width="100px" height="100px" viewBox="0 0 100 100" style="enable-background:new 0 0 100 100;" xml:space="preserve">
<path id="Twitter__x28_alt_x29_" d="M84.803,46.564c5.055-0.417,8.483-2.715,9.803-5.833c-1.824,1.12-7.484,2.341-10.61,1.178
	c-0.153-0.734-0.324-1.432-0.492-2.062c-2.382-8.746-10.537-15.792-19.082-14.941c0.691-0.279,1.392-0.539,2.092-0.772
	c0.94-0.337,6.459-1.235,5.59-3.183c-0.733-1.713-7.475,1.295-8.744,1.688c1.675-0.63,4.447-1.714,4.743-3.64
	c-2.567,0.352-5.087,1.566-7.034,3.331c0.703-0.757,1.236-1.679,1.349-2.672C55.57,24.033,51.57,32.853,48.333,41.408
	c-2.542-2.463-4.795-4.403-6.816-5.48c-5.67-3.041-12.449-6.213-23.091-10.164c-0.327,3.521,1.741,8.203,7.7,11.316
	c-1.291-0.173-3.652,0.213-5.54,0.665c0.769,4.034,3.28,7.357,10.079,8.964c-3.107,0.205-4.713,0.912-6.168,2.436
	c1.415,2.805,4.868,6.107,11.08,5.429c-6.906,2.977-2.816,8.49,2.804,7.667C28.794,72.143,13.679,71.416,5,63.134
	c22.661,30.879,71.921,18.262,79.262-11.481c5.499,0.047,8.733-1.905,10.738-4.057C91.831,48.134,87.239,47.578,84.803,46.564z"/>
</svg>

<?xml version="1.0" encoding="UTF-8" standalone="no"?>
<!DOCTYPE svg PUBLIC "-//W3C//DTD SVG 1.1//EN" "http://www.w3.org/Graphics/SVG/1.1/DTD/svg11.dtd">
<svg width="100%" height="100%" viewBox="0 0 100 100" version="1.1" xmlns="http://www.w3.org/2000/svg" xmlns:xlink="http://www.w3.org/1999/xlink" xml:space="preserve" xmlns:serif="http://www.serif.com/" style="fill-rule:evenodd;clip-rule:evenodd;stroke-linejoin:round;stroke-miterlimit:2;">
    <path id="Twitter__x28_alt_x29_" d="M84.803,46.564C89.858,46.147 93.286,43.849 94.606,40.731C92.782,41.851 87.122,43.072 83.996,41.909C83.843,41.175 83.672,40.477 83.504,39.847C81.122,31.101 72.967,24.055 64.422,24.906C65.113,24.627 65.814,24.367 66.514,24.134C67.454,23.797 72.973,22.899 72.104,20.951C71.371,19.238 64.629,22.246 63.36,22.639C65.035,22.009 67.807,20.925 68.103,18.999C65.536,19.351 63.016,20.565 61.069,22.33C61.772,21.573 62.305,20.651 62.418,19.658C55.57,24.033 51.57,32.853 48.333,41.408C45.791,38.945 43.538,37.005 41.517,35.928C35.847,32.887 29.068,29.715 18.426,25.764C18.099,29.285 20.167,33.967 26.126,37.08C24.835,36.907 22.474,37.293 20.586,37.745C21.355,41.779 23.866,45.102 30.665,46.709C27.558,46.914 25.952,47.621 24.497,49.145C25.912,51.95 29.365,55.252 35.577,54.574C28.671,57.551 32.761,63.064 38.381,62.241C28.794,72.143 13.679,71.416 5,63.134C27.661,94.013 76.921,81.396 84.262,51.653C89.761,51.7 92.995,49.748 95,47.596C91.831,48.134 87.239,47.578 84.803,46.564Z" style="fill:white;fill-rule:nonzero;"/>
</svg>
